!!!COM: Music21
!!!OTL: jig_Magoos
!!!OMV: jig_Magoos
**kern
*clefG2
*k[f#]
*G:
*M6/8
=1
8bL
8b
8bJ
8ddL
8b
8gJ
=
8gL
8f#
8gJ
8bL
8g
8dJ
=
8eL
8f#
8gJ
8dL
8dd
8ccJ
=
8bL
8a
8gJ
8aL
8b
8ccJ
=
8bL
8b
8bJ
8ddL
8b
8gJ
=
8gL
8f#
8gJ
8bL
8g
8dJ
!!linebreak:original
=
8eL
8f#
8gJ
8dL
8dd
8ccJ
=
8bL
8g
8f#J
8gL
8a
8ccJ
=||
*M6/8
8bL
8b
8bJ
8ddL
8b
8gJ
=
8gL
8f#
8gJ
8bL
8g
8dJ
=
8eL
8f#
8gJ
8dL
8dd
8ccJ
=
8bL
8a
8gJ
8aL
8b
8ccJ
!!linebreak:original
=
8bL
8b
8bJ
8ddL
8b
8gJ
=
8gL
8f#
8gJ
8bL
8g
8dJ
=
8eL
8f#
8gJ
8dL
8dd
8ccJ
=
8bL
8g
8f#J
8gL
8a
8bJ
=||
8ccL
8cc
8ccJ
8eeL
8dd
8ccJ
=
8bL
8a
8bJ
8ddL
8b
8gJ
!!linebreak:original
=
8f#L
8a
8dJ
8f#L
8a
8dJ
=
8ddL
8ee
8ddJ
8bL
8a
8gJ
=
8ccL
8b
8ccJ
8eeL
8dd
8ccJ
=
8bL
8b
8bJ
8ddL
8b
8gJ
=
8f#L
8g
8g#XJ
8aL
8dd
8ccJ
=
8bL
8g
8f#J
8gL
8a
8bJ
!!linebreak:original
=||
8ccL
8cc
8ccJ
8eeL
8dd
8ccJ
=
8bL
8a
8bJ
8ddL
8b
8gJ
=
8f#L
8a
8dJ
8f#L
8a
8dJ
=
8ddL
8ee
8ddJ
8bL
8a
8gJ
=
8ccL
8b
8ccJ
8eeL
8dd
8ccJ
=
8bL
8b
8bJ
8ddL
8b
8gJ
!!linebreak:original
=
8f#L
8g
8g#XJ
8aL
8dd
8ccJ
=
8bL
8g
8f#J
4.g
=||
*-
